src/lib/packages/icons/src/assets/line/arrow-turn-left-up.svg

<svg width="24" height="24" viewBox="0 0 24 24" fill="none" xmlns="http://www.w3.org/2000/svg">
<path d="M18.75 21.0001C18.75 21.4141 18.414 21.7501 18 21.7501H13C10.933 21.7501 9.25002 20.0681 9.25002 18.0001V4.81115L6.53005 7.53112C6.23705 7.82412 5.76202 7.82412 5.46902 7.53112C5.17602 7.23812 5.17602 6.76309 5.46902 6.47009L9.46902 2.47009C9.53802 2.40109 9.62091 2.34622 9.71291 2.30822C9.89591 2.23222 10.1029 2.23222 10.2859 2.30822C10.3779 2.34622 10.4611 2.40109 10.5301 2.47009L14.5301 6.47009C14.8231 6.76309 14.8231 7.23812 14.5301 7.53112C14.3841 7.67712 14.192 7.75109 14 7.75109C13.808 7.75109 13.616 7.67812 13.47 7.53112L10.75 4.81115V18.0001C10.75 19.2411 11.76 20.2501 13 20.2501H18C18.414 20.2501 18.75 20.5861 18.75 21.0001Z" fill="currentColor"/>
</svg>

<svg xmlns="http://www.w3.org/2000/svg" width="24" height="24" fill="none"><path fill="currentColor" d="M18.75 21a.75.75 0 0 1-.75.75h-5A3.755 3.755 0 0 1 9.25 18V4.811l-2.72 2.72a.75.75 0 1 1-1.061-1.06l4-4a.748.748 0 0 1 .817-.163.75.75 0 0 1 .244.162l4 4a.75.75 0 0 1-1.06 1.061l-2.72-2.72v13.19c0 1.24 1.01 2.25 2.25 2.25h5a.75.75 0 0 1 .75.75Z"/></svg>
